dist/img/corp/common-icon3.svg

<svg width="51" height="50" viewBox="0 0 51 50" fill="none" xmlns="http://www.w3.org/2000/svg">
<path d="M16.25 38.2291L22.7083 43.2291C23.5417 44.0624 25.4167 44.4791 26.6667 44.4791H34.5833C37.0833 44.4791 39.7917 42.6041 40.4167 40.1041L45.4167 24.8958C46.4583 21.9791 44.5833 19.4791 41.4583 19.4791H33.125C31.875 19.4791 30.8333 18.4374 31.0417 16.9791L32.0833 10.3124C32.5 8.43744 31.25 6.3541 29.375 5.7291C27.7083 5.1041 25.625 5.93744 24.7917 7.18744L16.25 19.8958" stroke="#FC00FF" stroke-width="2" stroke-miterlimit="10"/>
<path d="M5.625 38.229V17.8123C5.625 14.8956 6.875 13.854 9.79167 13.854H11.875C14.7917 13.854 16.0417 14.8956 16.0417 17.8123V38.229C16.0417 41.1456 14.7917 42.1873 11.875 42.1873H9.79167C6.875 42.1873 5.625 41.1456 5.625 38.229Z" stroke="#FC00FF" stroke-width="1.5" stroke-linecap="round" stroke-linejoin="round"/>
</svg>

<svg width="51" height="50" viewBox="0 0 51 50" fill="none" xmlns="http://www.w3.org/2000/svg"><path d="M16.25 38.23l6.458 5c.834.832 2.709 1.25 3.959 1.25h7.916c2.5 0 5.209-1.876 5.834-4.376l5-15.208c1.041-2.917-.834-5.417-3.959-5.417h-8.333c-1.25 0-2.292-1.042-2.083-2.5l1.041-6.667c.417-1.875-.833-3.958-2.708-4.583-1.667-.625-3.75.208-4.583 1.458L16.25 19.896" stroke="#FC00FF" stroke-width="2" stroke-miterlimit="10"/><path d="M5.625 38.229V17.812c0-2.916 1.25-3.958 4.167-3.958h2.083c2.917 0 4.167 1.042 4.167 3.958V38.23c0 2.917-1.25 3.958-4.167 3.958H9.792c-2.917 0-4.167-1.041-4.167-3.958z" stroke="#FC00FF" stroke-width="1.5" stroke-linecap="round" stroke-linejoin="round"/></svg>
